app/component-library/components/Icons/Icon/assets/security-search.svg

<svg width="24" height="24" viewBox="0 0 24 24" fill="none" xmlns="http://www.w3.org/2000/svg">
<path d="M19.7308 6.94014V9.45014C19.7308 10.1601 19.0108 10.6201 18.3408 10.3701C17.5008 10.0601 16.5708 9.94014 15.5908 10.0401C13.2108 10.3001 10.7708 12.5901 10.3708 14.9601C10.0408 16.9301 10.6708 18.7701 11.8808 20.0701C12.4308 20.6701 12.0608 21.6401 11.2508 21.7301C10.5608 21.8101 9.8808 21.7901 9.5008 21.5101L4.0008 17.4001C3.3508 16.9101 2.8208 15.8501 2.8208 15.0301V6.94014C2.8208 5.81014 3.6808 4.57014 4.7308 4.17014L10.2308 2.11014C10.8008 1.90014 11.7408 1.90014 12.3108 2.11014L17.8108 4.17014C18.8708 4.57014 19.7308 5.81014 19.7308 6.94014Z" fill="currentColor"/>
<path d="M16.2808 11.5098C13.8008 11.5098 11.7808 13.5298 11.7808 16.0098C11.7808 18.4898 13.8008 20.5098 16.2808 20.5098C18.7608 20.5098 20.7808 18.4898 20.7808 16.0098C20.7808 13.5198 18.7608 11.5098 16.2808 11.5098Z" fill="currentColor"/>
<path d="M21.2808 22C21.0108 22 20.7608 21.89 20.5708 21.71C20.5308 21.66 20.4808 21.61 20.4508 21.55C20.4108 21.5 20.3808 21.44 20.3608 21.38C20.3308 21.32 20.3108 21.26 20.3008 21.2C20.2908 21.13 20.2808 21.07 20.2808 21C20.2808 20.87 20.3108 20.74 20.3608 20.62C20.4108 20.49 20.4808 20.39 20.5708 20.29C20.8008 20.06 21.1508 19.95 21.4708 20.02C21.5408 20.03 21.6008 20.05 21.6608 20.08C21.7208 20.1 21.7808 20.13 21.8308 20.17C21.8908 20.2 21.9408 20.25 21.9908 20.29C22.0808 20.39 22.1508 20.49 22.2008 20.62C22.2508 20.74 22.2808 20.87 22.2808 21C22.2808 21.26 22.1708 21.52 21.9908 21.71C21.9408 21.75 21.8908 21.79 21.8308 21.83C21.7808 21.87 21.7208 21.9 21.6608 21.92C21.6008 21.95 21.5408 21.97 21.4708 21.98C21.4108 21.99 21.3408 22 21.2808 22Z" fill="currentColor"/>
</svg>

<svg xmlns="http://www.w3.org/2000/svg" width="24" height="24" viewBox="0 0 24 24" fill="none"><path fill="currentColor" d="M19.73 6.94v2.51c0 .71-.72 1.17-1.39.92a6.11 6.11 0 0 0-2.75-.33c-2.38.26-4.82 2.55-5.22 4.92-.33 1.97.3 3.81 1.51 5.11.55.6.18 1.57-.63 1.66-.69.08-1.37.06-1.75-.22L4 17.4c-.65-.49-1.18-1.55-1.18-2.37V6.94c0-1.13.86-2.37 1.91-2.77l5.5-2.06c.57-.21 1.51-.21 2.08 0l5.5 2.06c1.06.4 1.92 1.64 1.92 2.77Z"/><path fill="currentColor" d="M16.28 11.51c-2.48 0-4.5 2.02-4.5 4.5s2.02 4.5 4.5 4.5 4.5-2.02 4.5-4.5a4.5 4.5 0 0 0-4.5-4.5ZM21.28 22c-.27 0-.52-.11-.71-.29-.04-.05-.09-.1-.12-.16a.556.556 0 0 1-.09-.17.636.636 0 0 1-.06-.18c-.01-.07-.02-.13-.02-.2 0-.13.03-.26.08-.38.05-.13.12-.23.21-.33.23-.23.58-.34.9-.27.07.01.13.03.19.06.06.02.12.05.17.09.06.03.11.08.16.12.09.1.16.2.21.33.05.12.08.25.08.38 0 .26-.11.52-.29.71-.05.04-.1.08-.16.12-.05.04-.11.07-.17.09-.06.03-.12.05-.19.06-.06.01-.13.02-.19.02Z"/></svg>
